www/assets/icons/add_to_home_screen.svg

<svg xmlns="http://www.w3.org/2000/svg" width="24" height="24" viewBox="0 0 24 24" fill='currentColor'><path d="M18.5 1.01 8.5 1c-1.1 0-2 .9-2 2v3h2V5h10v14h-10v-1h-2v3c0 1.1.9 2 2 2h10c1.1 0 2-.9 2-2V3c0-1.1-.9-1.99-2-1.99M10.5 15h2V8h-7v2h3.59L3.5 15.59 4.91 17l5.59-5.59z"/></svg>

<svg width="24" height="24" viewBox="0 0 24 24" xmlns="http://www.w3.org/2000/svg" fill='currentColor'><path d="M18.5 1.01L8.5 1C7.4 1 6.5 1.9 6.5 3V6H8.5V5H18.5V19H8.5V18H6.5V21C6.5 22.1 7.4 23 8.5 23H18.5C19.6 23 20.5 22.1 20.5 21V3C20.5 1.9 19.6 1.01 18.5 1.01ZM10.5 15H12.5V8H5.5V10H9.09L3.5 15.59L4.91 17L10.5 11.41V15Z"/></svg>
